X: 6
T:Lads a Bunchum
% Nottingham Music Database
S:Adderbury
M:2/2
K:F
P:A
FG|A3B ABcd|B2G2 G2AB|c2c2 cBAG|F2F2 F4:|
P:B
fe|d2c2 c2FG|A2A2 A2fe|d2c2 B2A2|G2F2 F2fe|
d2c2 c2FG|A2A2 A2fe|d2c2 A2F2|G2F2 F4:|<end>
<start>
